X: 3
T: Mullin's Fancy  
M: 4/4
L: 1/8
R: reel
K: D Major
fd ~d2 eB ~B2 | d2 Ad faag | fd ~d2 ABdB | AFdF ~E2 D2 |
d3 f eB ~B2 | dfeg faag | f2 dB ABcB | AFDF ~E2 D2 ||
~a3 b afdf | afdf afdf | a3 b afdf | gfed Bcdf |
a3 b afdf | abaf gfga | (3bag (3agf gfef | g2 fa gbag |]
